packages/core/src/svgs/tokens/branded/AERO.svg

<svg width="24" height="24" viewBox="0 0 24 24" fill="none" xmlns="http://www.w3.org/2000/svg">
<path d="M11.9999 21.6969C9.42811 21.6969 6.96167 20.6753 5.14315 18.8567C3.32461 17.0383 2.30298 14.5718 2.30298 12C2.30298 9.42826 3.32461 6.96177 5.14315 5.14323C6.96167 3.3247 9.42811 2.30306 11.9999 2.30306C14.5718 2.30306 17.0382 3.3247 18.8567 5.14323C20.6752 6.96177 21.6969 9.42826 21.6969 12C21.6969 14.5718 20.6752 17.0383 18.8567 18.8567C17.0382 20.6753 14.5718 21.6969 11.9999 21.6969Z" fill="url(#paint0_linear_364_10107)"/>
<path d="M11.9999 2.6061C13.2336 2.6061 14.4551 2.84908 15.5949 3.32117C16.7346 3.79325 17.7702 4.48521 18.6424 5.35752C19.5148 6.22981 20.2067 7.2654 20.6788 8.40511C21.151 9.54479 21.3939 10.7663 21.3939 12C21.3939 13.2336 21.151 14.4552 20.6788 15.5949C20.2067 16.7347 19.5148 17.7703 18.6424 18.6425C17.7702 19.5149 16.7346 20.2068 15.5949 20.6789C14.4551 21.1509 13.2336 21.394 11.9999 21.394C9.50849 21.394 7.11918 20.4042 5.35747 18.6425C3.59577 16.8808 2.60606 14.4914 2.60606 12C2.60606 9.50859 3.59577 7.11921 5.35747 5.35752C7.11918 3.59581 9.50849 2.6061 11.9999 2.6061ZM22 12C22 9.3478 20.9463 6.80432 19.071 4.92896C17.1956 3.0536 14.6521 2.00004 11.9999 2.00004C9.34785 2.00004 6.80429 3.0536 4.92892 4.92896C3.05356 6.80432 2 9.3478 2 12C2 14.6522 3.05356 17.1957 4.92892 19.0711C6.80429 20.9464 9.34785 22 11.9999 22C14.6521 22 17.1956 20.9464 19.071 19.0711C20.9463 17.1957 22 14.6522 22 12Z" fill="white"/>
<path d="M6.19342 14.0485C7.44189 11.4303 8.7025 8.80607 9.95103 6.17578L10.0964 6.1576C10.7691 7.38184 11.454 8.5879 12.151 9.85463C9.98906 10.984 7.98584 12.3941 6.19342 14.0485ZM12.2176 15.7818C12.151 15.8304 12.0903 15.903 12.0116 15.9272C10.5389 16.5333 9.06007 17.097 7.48432 17.3213C7.06007 17.3818 6.61159 17.3696 6.19342 17.2909C5.47826 17.1516 5.2116 16.6121 5.51463 15.9455C5.71462 15.5334 5.9813 15.1212 6.29039 14.7758C7.45401 13.4727 8.87219 12.503 10.3449 11.5879C12.4589 10.3002 14.6766 9.1914 16.9752 8.27274C17.1327 8.21213 17.2782 8.13335 17.4601 8.05457L17.1934 7.56972H18.9025L18.9328 7.63033L17.86 8.10305C14.6744 9.44241 11.6918 11.2213 8.99947 13.3879C8.54492 13.7636 8.15705 14.2182 7.76311 14.6486C7.62371 14.7939 7.51462 14.9819 7.42372 15.1757C7.12068 15.806 7.37523 16.3151 8.06613 16.3758C8.67219 16.4243 9.29034 16.4121 9.88428 16.3151C10.6722 16.1939 11.4419 15.9696 12.2176 15.7818Z" fill="white"/>
<path d="M10.7996 12.6242L12.951 11.3334L15.642 16.4667L15.5571 16.5455L10.7996 12.6242Z" fill="white"/>
<defs>
<linearGradient id="paint0_linear_364_10107" x1="18.2812" y1="5.46878" x2="-2.33754" y2="29.15" gradientUnits="userSpaceOnUse">
<stop stop-color="#1A1E21"/>
<stop offset="1" stop-color="#06060A"/>
</linearGradient>
</defs>
</svg>

<svg xmlns="http://www.w3.org/2000/svg" width="24" height="24" fill="none" viewBox="0 0 24 24">
    <path fill="url(#AERO__a)" d="M12 21.697a9.697 9.697 0 1 1 0-19.393 9.697 9.697 0 0 1 0 19.393"/>
    <path fill="#fff" d="M12 2.606a9.394 9.394 0 1 1 0 18.789 9.394 9.394 0 0 1 0-18.789M22 12a10 10 0 1 0-20 0 10 10 0 0 0 20 0"/>
    <path fill="#fff" d="M6.193 14.049c1.249-2.619 2.51-5.243 3.758-7.873l.145-.018c.673 1.224 1.358 2.43 2.055 3.697a27.7 27.7 0 0 0-5.958 4.194m6.025 1.733c-.067.048-.128.121-.206.145-1.473.606-2.952 1.17-4.528 1.394-.424.06-.872.049-1.29-.03-.716-.14-.982-.679-.68-1.346.2-.412.467-.824.776-1.17 1.164-1.302 2.582-2.272 4.055-3.187a44.5 44.5 0 0 1 6.63-3.315c.158-.06.303-.14.485-.218l-.267-.485h1.71l.03.06-1.073.473A37 37 0 0 0 9 13.388c-.455.376-.843.83-1.237 1.26-.14.146-.248.334-.34.528-.302.63-.048 1.14.643 1.2a7.6 7.6 0 0 0 1.818-.06c.788-.122 1.558-.346 2.334-.534"/>
    <path fill="#fff" d="m10.8 12.624 2.151-1.29 2.691 5.133-.085.079z"/>
    <defs>
        <linearGradient id="AERO__a" x1="18.281" x2="-2.338" y1="5.469" y2="29.15" gradientUnits="userSpaceOnUse">
            <stop stop-color="#1A1E21"/>
            <stop offset="1" stop-color="#06060A"/>
        </linearGradient>
    </defs>
</svg>
